;FLAVOR:Marlin
;TIME:5639
;Filament used: 4.3613m
;Layer height: 0.2
;MINX:88.491
;MINY:82.167
;MINZ:0.2
;MAXX:131.509
;MAXY:136.773
;MAXZ:62
;TARGET_MACHINE.NAME:Creality Ender-3 V3 SE
;Generated with Cura_SteamEngine 5.6.0
M140 S60
M105
M190 S60
M104 S200
M105
M109 S200
M82 ;absolute extrusion mode
M220 S100 ;Reset Feedrate
M221 S100 ;Reset Flowrate

G28 ;Home

M420 S1; Enable mesh leveling

G92 E0 ;Reset Extruder
G1 Z2.0 F3000 ;Move Z Axis up
G1 X10.1 Y20 Z0.28 F5000.0 ;Move to start position
M109 S[material_print_temperature_layer_0]
G1 X10.1 Y145.0 Z0.28 F1500.0 E15 ;Draw the first line
G1 X10.4 Y145.0 Z0.28 F5000.0 ;Move to side a little
G1 X10.4 Y20 Z0.28 F1500.0 E30 ;Draw the second line
G92 E0  ;Reset Extruder
G1 E-1.0000 F1800 ;Retract a bit
G1 Z2.0 F3000 ;Move Z Axis up
G1 E0.0000 F1800 

G92 E0
G92 E0
G1 F2400 E-0.8
;LAYER_COUNT:310
;LAYER:0
M107
G0 F9000 X91.791 Y85.867 Z0.2
;TYPE:SKIRT
G1 F2400 E0
G1 F1800 X92.469 Y85.17 E0.03234
G1 X93.179 Y84.556 E0.06356
G1 X93.997 Y83.966 E0.09711
G1 X94.773 Y83.504 E0.12714
G1 X95.715 Y83.051 E0.16191
G1 X96.593 Y82.722 E0.1931
G1 X97.566 Y82.453 E0.22667
G1 X98.532 Y82.277 E0.25933
G1 X99.642 Y82.183 E0.29638
G1 X100.315 Y82.168 E0.31877
G1 X119.301 Y82.167 E0.95025
G1 X120.183 Y82.18 E0.97959
G1 X121.154 Y82.239 E1.01194
G1 X122.118 Y82.385 E1.04437
G1 X123.065 Y82.616 E1.07679
G1 X123.921 Y82.904 E1.10683
G1 X124.877 Y83.323 E1.14155
G1 X125.73 Y83.794 E1.17395
G1 X126.537 Y84.339 E1.20634
G1 X127.294 Y84.953 E1.23876
G1 X127.992 Y85.631 E1.27113
G1 X128.628 Y86.368 E1.3035
G1 X129.197 Y87.158 E1.33589
G1 X129.66 Y87.934 E1.36594
G1 X130.112 Y88.875 E1.40066
G1 X130.453 Y89.787 E1.43305
G1 X130.712 Y90.726 E1.46544
G1 X130.889 Y91.693 E1.49814
G1 X130.985 Y92.848 E1.53669
G1 X131.018 Y93.952 E1.57342
G1 X131.131 Y96.543 E1.65968
G1 X131.362 Y99.655 E1.76347
G1 X131.389 Y100.297 E1.78484
G1 X131.399 Y101.339 E1.8195
G1 X131.389 Y102.055 E1.84332
G1 X131.363 Y102.646 E1.863
G1 X131.284 Y103.772 E1.90054
G1 X131.14 Y106.326 E1.98562
G1 X131.058 Y109.742 E2.09927
G1 X131 Y120.135 E2.44495
G1 X130.984 Y120.833 E2.46817
G1 X130.917 Y121.805 E2.50057
G1 X130.764 Y122.766 E2.53294
G1 X130.527 Y123.71 E2.56531
G1 X130.206 Y124.637 E2.59794
G1 X129.75 Y125.633 E2.63437
G1 X129.33 Y126.399 E2.66343
G1 X127.736 Y129.071 E2.76691
G1 X127.227 Y129.955 E2.80084
G1 X126.682 Y130.805 E2.83442
G1 X126.09 Y131.571 E2.86662
G1 X125.543 Y132.17 E2.8936
G1 X124.868 Y132.857 E2.92564
G1 X124.119 Y133.598 E2.96068
G1 X123.395 Y134.249 E2.99306
G1 X122.615 Y134.835 E3.02551
G1 X121.787 Y135.348 E3.05791
G1 X120.918 Y135.786 E3.09028
G1 X120.012 Y136.145 E3.12269
G1 X119.08 Y136.423 E3.15504
G1 X118.195 Y136.606 E3.18509
G1 X117.162 Y136.726 E3.21968
G1 X116.354 Y136.752 E3.24657
G1 X115.251 Y136.746 E3.28326
G1 X111.876 Y136.773 E3.39551
G1 X111.199 Y136.763 E3.41803
G1 X107.633 Y136.765 E3.53664
G1 X105.884 Y136.745 E3.59482
G1 X103.646 Y136.761 E3.66925
G1 X102.674 Y136.721 E3.70161
G1 X101.707 Y136.597 E3.73404
G1 X100.757 Y136.387 E3.7664
G1 X99.828 Y136.094 E3.79879
G1 X98.961 Y135.734 E3.83002
G1 X98.067 Y135.267 E3.86357
G1 X97.248 Y134.74 E3.89596
G1 X96.478 Y134.143 E3.92836
G1 X95.79 Y133.506 E3.95955
G1 X95.159 Y132.812 E3.99075
G1 X94.382 Y131.76 E4.03424
G1 X93.028 Y129.679 E4.11682
G1 X91.44 Y127.378 E4.20981
G1 X90.933 Y126.566 E4.24165
G1 X90.694 Y126.118 E4.25854
G1 X90.174 Y125.088 E4.29691
G1 X89.777 Y124.2 E4.32926
G1 X89.46 Y123.278 E4.36169
G1 X89.226 Y122.333 E4.39407
G1 X89.076 Y121.372 E4.42642
G1 X89.014 Y120.494 E4.4557
G1 X88.999 Y119.837 E4.47755
G1 X89.001 Y93.68 E5.34754
G1 X89.013 Y92.976 E5.37096
G1 X89.073 Y92.004 E5.40335
G1 X89.22 Y91.043 E5.43568
G1 X89.451 Y90.096 E5.4681
G1 X89.765 Y89.174 E5.5005
G1 X90.158 Y88.283 E5.53289
G1 X90.593 Y87.491 E5.56294
G1 X91.176 Y86.624 E5.59769
G1 X91.791 Y85.867 E5.63013
G0 F9000 X92.078 Y86.146
G1 F1800 X92.731 Y85.473 E5.66132
G1 X93.441 Y84.859 E5.69254
G1 X94.202 Y84.31 E5.72375
G1 X94.978 Y83.848 E5.75379
G1 X95.855 Y83.426 E5.78616
G1 X96.733 Y83.097 E5.81735
G1 X97.638 Y82.846 E5.84858
G1 X98.566 Y82.676 E5.87996
G1 X99.676 Y82.582 E5.91701
G1 X100.315 Y82.568 E5.93827
G1 X119.295 Y82.567 E6.56955
G1 X120.159 Y82.579 E6.59829
G1 X121.095 Y82.635 E6.62947
G1 X122.024 Y82.774 E6.66072
G1 X122.937 Y82.995 E6.69196
G1 X123.793 Y83.283 E6.722
G1 X124.684 Y83.673 E6.75435
G1 X125.507 Y84.126 E6.78559
G1 X126.286 Y84.65 E6.81682
G1 X127.016 Y85.24 E6.84804
G1 X127.69 Y85.893 E6.87925
G1 X128.304 Y86.602 E6.91045
G1 X128.853 Y87.363 E6.94166
G1 X129.316 Y88.139 E6.97171
G1 X129.738 Y89.016 E7.00408
G1 X130.068 Y89.894 E7.03528
G1 X130.319 Y90.799 E7.06652
G1 X130.49 Y91.726 E7.09787
G1 X130.585 Y92.86 E7.13572
G1 X130.618 Y93.97 E7.17265
G1 X130.732 Y96.573 E7.25931
G1 X130.962 Y99.672 E7.36267
G1 X130.989 Y100.301 E7.38361
G1 X130.999 Y101.333 E7.41793
G1 X130.989 Y102.038 E7.44138
G1 X130.964 Y102.618 E7.46069
G1 X130.885 Y103.744 E7.49824
G1 X130.74 Y106.316 E7.58392
G1 X130.658 Y109.732 E7.69757
G1 X130.6 Y120.126 E8.04328
G1 X130.585 Y120.806 E8.0659
G1 X130.522 Y121.743 E8.09714
G1 X130.376 Y122.669 E8.12831
G1 X130.149 Y123.58 E8.15954
G1 X129.842 Y124.47 E8.19085
G1 X129.386 Y125.466 E8.22729
G1 X128.987 Y126.194 E8.2549
G1 X127.389 Y128.871 E8.35859
G1 X126.88 Y129.755 E8.39252
G1 X126.365 Y130.561 E8.42433
G1 X125.794 Y131.302 E8.45545
G1 X125.258 Y131.89 E8.48191
G1 X124.587 Y132.573 E8.51376
G1 X123.851 Y133.301 E8.54819
G1 X123.154 Y133.93 E8.57942
G1 X122.404 Y134.495 E8.61065
G1 X121.607 Y134.991 E8.64187
G1 X120.77 Y135.414 E8.67306
G1 X119.897 Y135.762 E8.70432
G1 X118.999 Y136.031 E8.7355
G1 X118.114 Y136.214 E8.76556
G1 X117.149 Y136.326 E8.79787
G1 X116.356 Y136.352 E8.82426
G1 X115.25 Y136.346 E8.86104
G1 X111.882 Y136.373 E8.97307
G1 X111.205 Y136.363 E8.99559
G1 X107.638 Y136.365 E9.11423
G1 X105.886 Y136.345 E9.1725
G1 X103.662 Y136.361 E9.24647
G1 X102.724 Y136.324 E9.2777
G1 X101.793 Y136.206 E9.30891
G1 X100.877 Y136.005 E9.3401
G1 X99.981 Y135.724 E9.37133
G1 X99.146 Y135.379 E9.40138
G1 X98.283 Y134.93 E9.43374
G1 X97.493 Y134.424 E9.46494
G1 X96.75 Y133.849 E9.49619
G1 X96.062 Y133.212 E9.52737
G1 X95.455 Y132.543 E9.55742
G1 X94.717 Y131.542 E9.59878
G1 X93.363 Y129.461 E9.68136
G1 X91.779 Y127.166 E9.77411
G1 X91.286 Y126.378 E9.80502
G1 X91.051 Y125.938 E9.82161
G1 X90.539 Y124.924 E9.85939
G1 X90.155 Y124.069 E9.89057
G1 X89.848 Y123.181 E9.92182
G1 X89.621 Y122.271 E9.95301
G1 X89.475 Y121.344 E9.98422
G1 X89.414 Y120.485 E10.01287
G1 X89.399 Y119.837 E10.03442
G1 X89.401 Y93.686 E10.90421
G1 X89.412 Y93 E10.92703
G1 X89.469 Y92.064 E10.95822
G1 X89.609 Y91.137 E10.9894
G1 X89.83 Y90.224 E11.02064
G1 X90.131 Y89.335 E11.05186
G1 X90.509 Y88.476 E11.08308
G1 X90.944 Y87.684 E11.11313
G1 X91.487 Y86.876 E11.14551
G1 X92.078 Y86.146 E11.17675
G0 F9000 X92.365 Y86.424
G1 F1800 X92.993 Y85.775 E11.20678
G1 X93.675 Y85.183 E11.23682
G1 X94.407 Y84.654 E11.26686
G1 X95.183 Y84.192 E11.2969
G1 X95.996 Y83.8 E11.32692
G1 X96.841 Y83.482 E11.35695
G1 X97.711 Y83.239 E11.38699
G1 X98.6 Y83.075 E11.41706
G1 X99.71 Y82.981 E11.45411
G1 X100.315 Y82.968 E11.47424
G1 X119.29 Y82.967 E12.10535
G1 X120.136 Y82.978 E12.13349
G1 X121.037 Y83.031 E12.16351
G1 X121.931 Y83.163 E12.19356
G1 X122.809 Y83.374 E12.2236
G1 X123.665 Y83.662 E12.25364
G1 X124.492 Y84.024 E12.28366
G1 X125.284 Y84.458 E12.3137
G1 X126.035 Y84.961 E12.34376
G1 X126.738 Y85.528 E12.3738
G1 X127.388 Y86.155 E12.40384
G1 X127.98 Y86.837 E12.43388
G1 X128.509 Y87.568 E12.46389
G1 X128.972 Y88.344 E12.49394
G1 X129.364 Y89.157 E12.52396
G1 X129.683 Y90.002 E12.554
G1 X129.926 Y90.872 E12.58405
G1 X130.091 Y91.76 E12.61409
G1 X130.185 Y92.872 E12.65121
G1 X130.218 Y93.988 E12.68834
G1 X130.333 Y96.603 E12.7754
G1 X130.562 Y99.69 E12.87836
G1 X130.589 Y100.305 E12.89883
G1 X130.599 Y101.327 E12.93282
G1 X130.589 Y102.021 E12.95591
G1 X130.565 Y102.59 E12.97485
G1 X130.486 Y103.716 E13.01239
G1 X130.34 Y106.306 E13.09867
G1 X130.258 Y109.722 E13.21232
G1 X130.2 Y120.118 E13.5581
G1 X130.186 Y120.78 E13.58013
G1 X130.127 Y121.681 E13.61016
G1 X129.988 Y122.573 E13.64018
G1 X129.771 Y123.45 E13.67023
G1 X129.478 Y124.304 E13.70026
G1 X129.035 Y125.274 E13.73573
G1 X128.644 Y125.989 E13.76283
G1 X127.042 Y128.671 E13.86674
G1 X126.533 Y129.555 E13.90067
G1 X126.048 Y130.317 E13.93071
G1 X125.498 Y131.033 E13.96074
G1 X124.973 Y131.61 E13.98668
G1 X124.306 Y132.289 E14.01834
G1 X123.582 Y133.005 E14.05221
G1 X122.913 Y133.611 E14.08223
G1 X122.192 Y134.156 E14.11229
G1 X121.426 Y134.634 E14.14232
G1 X120.621 Y135.043 E14.17235
G1 X119.782 Y135.379 E14.20241
G1 X118.918 Y135.639 E14.23242
G1 X118.033 Y135.822 E14.26248
G1 X117.136 Y135.926 E14.29252
G1 X116.358 Y135.952 E14.31841
G1 X115.249 Y135.946 E14.35529
G1 X111.888 Y135.973 E14.46708
G1 X111.211 Y135.963 E14.4896
G1 X107.643 Y135.965 E14.60828
G1 X105.888 Y135.945 E14.66665
G1 X103.677 Y135.961 E14.74019
G1 X102.774 Y135.927 E14.77025
G1 X101.878 Y135.815 E14.80028
G1 X100.996 Y135.623 E14.8303
G1 X100.134 Y135.354 E14.86034
G1 X99.299 Y135.009 E14.89038
G1 X98.498 Y134.593 E14.9204
G1 X97.737 Y134.107 E14.95044
G1 X97.021 Y133.555 E14.98051
G1 X96.358 Y132.943 E15.01052
G1 X95.751 Y132.274 E15.04056
G1 X95.052 Y131.324 E15.07979
G1 X93.698 Y129.243 E15.16237
G1 X92.118 Y126.954 E15.25487
G1 X91.639 Y126.189 E15.28489
G1 X91.408 Y125.758 E15.30116
G1 X90.904 Y124.76 E15.33834
G1 X90.533 Y123.937 E15.36837
G1 X90.236 Y123.084 E15.39841
G1 X90.016 Y122.208 E15.42845
G1 X89.874 Y121.316 E15.45849
G1 X89.814 Y120.476 E15.4865
G1 X89.799 Y119.837 E15.50776
G1 X89.801 Y93.692 E16.37735
G1 X89.811 Y93.024 E16.39957
G1 X89.865 Y92.123 E16.42959
G1 X89.998 Y91.23 E16.45962
G1 X90.209 Y90.352 E16.48965
G1 X90.497 Y89.496 E16.51969
G1 X90.86 Y88.669 E16.54973
G1 X91.295 Y87.877 E16.57979
G1 X91.798 Y87.127 E16.60982
G1 X92.365 Y86.424 E16.63986
G1 F2400 E15.83986
G0 F9000 X100.2 Y93.368
G1 F2400 E16.63986
G1 F1800 X119.803 Y93.367 E17.29186
G1 X119.862 Y97.217 E17.41993
G1 X119.863 Y97.229 E17.42033
G1 X120.019 Y99.273 E17.48851
G1 X120.02 Y99.285 E17.48891
G1 X120.083 Y99.754 E17.50465
G1 X120.084 Y99.76 E17.50485
G1 X120.2 Y100.458 E17.52838
G1 X120.2 Y101.846 E17.57455
G1 X120.184 Y101.898 E17.57636
G1 X119.937 Y103.513 E17.6307
G1 X119.935 Y103.533 E17.63137
G1 X119.885 Y104.531 E17.6646
G1 X119.885 Y104.54 E17.6649
G1 X119.799 Y120.398 E18.19235
G1 X119.775 Y120.406 E18.19319
G1 X119.694 Y120.567 E18.19918
G1 X119.575 Y120.606 E18.20335
G1 X119.494 Y120.767 E18.20934
G1 X119.494 Y120.777 E18.20968
G1 X119.407 Y120.806 E18.21273
G1 X119.329 Y120.935 E18.21774
G1 X119.324 Y120.967 E18.21882
G1 X119.24 Y120.967 E18.22161
G1 X119.153 Y120.987 E18.22458
G1 X118.808 Y121.154 E18.23733
G1 X118.783 Y121.169 E18.2383
G1 X118.461 Y121.388 E18.25125
G1 X118.434 Y121.409 E18.25239
G1 X118.118 Y121.715 E18.26702
G1 X118.09 Y121.749 E18.26848
G1 X117.795 Y122.196 E18.2863
G1 X117.776 Y122.233 E18.28768
G1 X117.635 Y122.59 E18.30045
G1 X117.627 Y122.614 E18.30129
G1 X117.552 Y122.913 E18.31154
G1 X117.547 Y122.94 E18.31245
G1 X117.517 Y123.212 E18.32156
G1 X117.516 Y123.226 E18.32202
G1 X117.504 Y123.524 E18.33194
G1 X117.504 Y124.269 E18.35672
G1 X117.44 Y124.269 E18.35885
G1 X117.323 Y124.307 E18.36294
G1 X116.926 Y124.593 E18.37921
G1 X116.903 Y124.612 E18.38021
G1 X116.599 Y124.911 E18.39439
G1 X116.582 Y124.931 E18.39526
G1 X116.247 Y125.358 E18.41331
G1 X116.204 Y125.481 E18.41765
G1 X116.204 Y125.566 E18.42047
G1 X114.651 Y125.528 E18.47214
G1 X113.1 Y125.523 E18.52373
G1 X113.088 Y125.523 E18.52413
G1 X112.221 Y125.572 E18.55301
G1 X112.221 Y124.837 E18.57746
G1 X112.298 Y124.686 E18.58309
G1 X112.297 Y121.167 E18.70014
G1 X112.258 Y121.048 E18.7043
G1 X112.22 Y121.029 E18.70572
G1 X112.22 Y120.367 E18.72773
G1 X112.181 Y120.248 E18.7319
G1 X112.02 Y120.167 E18.73789
G1 X107.979 Y120.167 E18.8723
G1 X107.86 Y120.206 E18.87646
G1 X107.779 Y120.367 E18.88246
G1 X107.779 Y121.014 E18.90398
G1 X107.702 Y121.167 E18.90967
G1 X107.703 Y124.685 E19.02668
G1 X107.742 Y124.804 E19.03085
G1 X107.78 Y124.823 E19.03226
G1 X107.78 Y125.565 E19.05694
G1 X106.555 Y125.508 E19.09773
G1 X106.542 Y125.508 E19.09816
G1 X103.796 Y125.566 E19.18951
G1 X103.795 Y123.54 E19.2569
G1 X103.794 Y123.525 E19.2574
G1 X103.767 Y123.159 E19.2696
G1 X103.765 Y123.138 E19.2703
G1 X103.715 Y122.864 E19.27957
G1 X103.709 Y122.839 E19.28042
G1 X103.586 Y122.454 E19.29387
G1 X103.572 Y122.422 E19.29503
G1 X103.385 Y122.067 E19.30837
G1 X103.366 Y122.037 E19.30955
G1 X103.166 Y121.781 E19.32036
G1 X103.144 Y121.758 E19.32142
G1 X102.909 Y121.539 E19.3321
G1 X102.882 Y121.517 E19.33326
G1 X102.477 Y121.255 E19.3493
G1 X102.431 Y121.233 E19.351
G1 X101.802 Y121.023 E19.37306
G1 X101.758 Y121.014 E19.37455
G1 X101.34 Y120.975 E19.38851
G1 X101.323 Y120.974 E19.38908
G1 X100.705 Y120.969 E19.40963
G1 X100.705 Y120.868 E19.41299
G1 X100.69 Y120.793 E19.41554
G1 X100.487 Y120.292 E19.43352
G1 X100.407 Y120.197 E19.43765
G1 X100.372 Y120.187 E19.43886
G1 X100.363 Y120.134 E19.44065
G1 X100.306 Y120.024 E19.44477
G1 X100.199 Y119.98 E19.44861
G1 X100.2 Y93.368 E20.33373
G0 F9000 X100.6 Y93.768
G1 F1800 X119.409 Y93.767 E20.95932
G1 X119.462 Y97.223 E21.07428
G1 X119.464 Y97.26 E21.07552
G1 X119.62 Y99.304 E21.1437
G1 X119.623 Y99.338 E21.14483
G1 X119.686 Y99.807 E21.16057
G1 X119.689 Y99.825 E21.16118
G1 X119.8 Y100.493 E21.1837
G1 X119.8 Y101.8 E21.22717
G1 X119.789 Y101.837 E21.22846
G1 X119.542 Y103.452 E21.2828
G1 X119.536 Y103.513 E21.28483
G1 X119.486 Y104.511 E21.31807
G1 X119.485 Y104.538 E21.31897
G1 X119.4 Y120.241 E21.84126
G1 X119.38 Y120.267 E21.84235
G1 X119.293 Y120.32 E21.84574
G1 X119.16 Y120.493 E21.853
G1 X119.158 Y120.5 E21.85324
G1 X119.125 Y120.52 E21.85452
G1 X119.056 Y120.609 E21.85827
G1 X118.979 Y120.627 E21.8609
G1 X118.634 Y120.794 E21.87365
G1 X118.558 Y120.838 E21.87657
G1 X118.236 Y121.057 E21.88952
G1 X118.156 Y121.122 E21.89295
G1 X117.84 Y121.428 E21.90758
G1 X117.756 Y121.529 E21.91195
G1 X117.461 Y121.976 E21.92976
G1 X117.404 Y122.086 E21.93388
G1 X117.263 Y122.443 E21.94665
G1 X117.239 Y122.517 E21.94924
G1 X117.164 Y122.816 E21.95949
G1 X117.15 Y122.896 E21.96219
G1 X117.12 Y123.168 E21.97129
G1 X117.116 Y123.21 E21.97269
G1 X117.104 Y123.508 E21.98261
G1 X117.104 Y123.974 E21.99811
G1 X117.089 Y123.982 E21.99868
G1 X116.692 Y124.268 E22.01495
G1 X116.622 Y124.327 E22.018
G1 X116.318 Y124.626 E22.03218
G1 X116.267 Y124.684 E22.03475
G1 X115.932 Y125.111 E22.0528
G1 X115.907 Y125.158 E22.05457
G1 X114.661 Y125.128 E22.09602
G1 X114.648 Y125.128 E22.09646
G1 X113.101 Y125.123 E22.14791
G1 X113.065 Y125.124 E22.14911
G1 X112.621 Y125.149 E22.1639
G1 X112.621 Y124.976 E22.16965
G1 X112.628 Y124.967 E22.17003
G1 X112.698 Y124.686 E22.17966
G1 X112.697 Y121.167 E22.29671
G1 X112.657 Y120.952 E22.30398
G1 X112.62 Y120.892 E22.30632
G1 X112.62 Y120.367 E22.32379
G1 X112.58 Y120.152 E22.33106
G1 X112.467 Y119.966 E22.3383
G1 X112.294 Y119.833 E22.34556
G1 X112.02 Y119.767 E22.35493
G1 X107.979 Y119.767 E22.48933
G1 X107.764 Y119.807 E22.49661
G1 X107.578 Y119.92 E22.50385
G1 X107.445 Y120.093 E22.5111
G1 X107.379 Y120.367 E22.52048
G1 X107.379 Y120.879 E22.53751
G1 X107.368 Y120.893 E22.5381
G1 X107.302 Y121.167 E22.54747
G1 X107.303 Y124.685 E22.66448
G1 X107.343 Y124.9 E22.67176
G1 X107.38 Y124.96 E22.6741
G1 X107.38 Y125.147 E22.68032
G1 X106.574 Y125.109 E22.70716
G1 X106.533 Y125.108 E22.70852
G1 X104.196 Y125.157 E22.78627
G1 X104.195 Y123.54 E22.84005
G1 X104.193 Y123.496 E22.84151
G1 X104.166 Y123.13 E22.85372
G1 X104.158 Y123.066 E22.85587
G1 X104.108 Y122.792 E22.86513
G1 X104.09 Y122.717 E22.8677
G1 X103.967 Y122.332 E22.88114
G1 X103.926 Y122.235 E22.88464
G1 X103.739 Y121.88 E22.89799
G1 X103.681 Y121.791 E22.90152
G1 X103.481 Y121.535 E22.91232
G1 X103.417 Y121.465 E22.91548
G1 X103.182 Y121.246 E22.92616
G1 X103.099 Y121.181 E22.92967
G1 X102.694 Y120.919 E22.94571
G1 X102.558 Y120.854 E22.95073
G1 X101.929 Y120.644 E22.97278
G1 X101.795 Y120.616 E22.97734
